packages/icon/src/svg/objective.icon.svg

<svg width="24" height="24" viewBox="0 0 24 24" fill="none" xmlns="http://www.w3.org/2000/svg">
<path fill-rule="evenodd" clip-rule="evenodd" d="M23.2306 1.78298C23.3312 1.88109 23.3312 2.04273 23.2306 2.14084L19.207 6.06722L21.5604 8.36378C21.7209 8.52036 21.6101 8.7927 21.3858 8.7927H15.25C15.1119 8.7927 15 8.68077 15 8.5427V2.55517C15 2.33392 15.2662 2.22172 15.4246 2.37625L17.793 4.6874L21.8254 0.752471C21.9225 0.657705 22.0775 0.657705 22.1746 0.75247L23.2306 1.78298ZM12 12.6958C11.447 12.6958 11 12.2577 11 11.72C11 11.1804 11.447 10.7442 12 10.7442C12.553 10.7442 13 11.1804 13 11.72C13 12.2577 12.553 12.6958 12 12.6958ZM9 11.72C9 10.106 10.346 8.79253 12 8.79253V6.84088C9.243 6.84088 7 9.02966 7 11.72C7 14.4104 9.243 16.5992 12 16.5992C14.757 16.5992 17 14.4104 17 11.72H15C15 13.334 13.654 14.6475 12 14.6475C10.346 14.6475 9 13.334 9 11.72ZM5 11.72C5 15.4867 8.14 18.5508 12 18.5508C15.86 18.5508 19 15.4867 19 11.72H21C21 16.563 16.963 20.5025 12 20.5025C7.037 20.5025 3 16.563 3 11.72C3 6.87699 7.037 2.93757 12 2.93757V4.88922C8.14 4.88922 5 7.95332 5 11.72Z" fill="white"/>
</svg>

<svg aria-label="objective icon" viewBox="0 0 24 24"><path fill-rule="evenodd" clip-rule="evenodd" d="M23.23 1.783a.25.25 0 010 .358l-4.023 3.926 2.353 2.297a.25.25 0 01-.174.429H15.25a.25.25 0 01-.25-.25V2.555a.25.25 0 01.425-.179l2.368 2.311L21.825.752a.25.25 0 01.35 0l1.056 1.031zM12 12.696c-.553 0-1-.438-1-.976 0-.54.447-.976 1-.976.553 0 1 .436 1 .976a.988.988 0 01-1 .976zm-3-.976c0-1.614 1.346-2.927 3-2.927V6.84c-2.757 0-5 2.189-5 4.879 0 2.69 2.243 4.88 5 4.88s5-2.19 5-4.88h-2c0 1.614-1.346 2.928-3 2.928s-3-1.314-3-2.928zm-4 0c0 3.767 3.14 6.83 7 6.83s7-3.063 7-6.83h2c0 4.843-4.037 8.783-9 8.783s-9-3.94-9-8.783 4.037-8.782 9-8.782v1.951c-3.86 0-7 3.064-7 6.831z"/></svg>
